dist/assets/images/header-5.svg

<?xml version="1.0" encoding="UTF-8"?>
<svg width="18px" height="17px" viewBox="0 0 18 17" version="1.1" xmlns="http://www.w3.org/2000/svg" xmlns:xlink="http://www.w3.org/1999/xlink">
    <!-- Generator: Sketch 41.2 (35397) - http://www.bohemiancoding.com/sketch -->
    <title>noun_613777_cc copy</title>
    <desc>Created with Sketch.</desc>
    <defs></defs>
    <g id="_Hovers" stroke="none" stroke-width="1" fill="none" fill-rule="evenodd">
        <g id="noun_613777_cc-copy" fill="#FFFFFF">
            <path d="M3.05625,13.5 C3.31725,12.21675 4.45275,11.25 5.8125,11.25 C7.17225,11.25 8.30775,12.21675 8.56875,13.5 L17.25,13.5 C17.5605,13.5 17.8125,13.752 17.8125,14.0625 C17.8125,14.373 17.5605,14.625 17.25,14.625 L8.56875,14.625 C8.30775,15.90825 7.17225,16.875 5.8125,16.875 C4.45275,16.875 3.31725,15.90825 3.05625,14.625 L0.75,14.625 C0.4395,14.625 0.1875,14.373 0.1875,14.0625 C0.1875,13.752 0.4395,13.5 0.75,13.5 L3.05625,13.5 Z M5.8125,15.75 C4.882125,15.75 4.125,14.992875 4.125,14.0625 C4.125,13.132125 4.882125,12.375 5.8125,12.375 C6.742875,12.375 7.5,13.132125 7.5,14.0625 C7.5,14.992875 6.742875,15.75 5.8125,15.75 Z M9.43125,7.875 C9.69225,6.59175 10.82775,5.625 12.1875,5.625 C13.54725,5.625 14.68275,6.59175 14.94375,7.875 L17.25,7.875 C17.5605,7.875 17.8125,8.127 17.8125,8.4375 C17.8125,8.748 17.5605,9 17.25,9 L14.94375,9 C14.68275,10.28325 13.54725,11.25 12.1875,11.25 C10.82775,11.25 9.69225,10.28325 9.43125,9 L0.75,9 C0.4395,9 0.1875,8.748 0.1875,8.4375 C0.1875,8.127 0.4395,7.875 0.75,7.875 L9.43125,7.875 Z M12.1875,10.125 C11.257125,10.125 10.5,9.367875 10.5,8.4375 C10.5,7.507125 11.257125,6.75 12.1875,6.75 C13.117875,6.75 13.875,7.507125 13.875,8.4375 C13.875,9.367875 13.117875,10.125 12.1875,10.125 Z M3.05625,2.25 C3.31725,0.96675 4.45275,0 5.8125,0 C7.17225,0 8.30775,0.96675 8.56875,2.25 L17.25,2.25 C17.5605,2.25 17.8125,2.502 17.8125,2.8125 C17.8125,3.123 17.5605,3.375 17.25,3.375 L8.56875,3.375 C8.30775,4.65825 7.17225,5.625 5.8125,5.625 C4.45275,5.625 3.31725,4.65825 3.05625,3.375 L0.75,3.375 C0.4395,3.375 0.1875,3.123 0.1875,2.8125 C0.1875,2.502 0.4395,2.25 0.75,2.25 L3.05625,2.25 Z M5.8125,4.5 C4.882125,4.5 4.125,3.742875 4.125,2.8125 C4.125,1.882125 4.882125,1.125 5.8125,1.125 C6.742875,1.125 7.5,1.882125 7.5,2.8125 C7.5,3.742875 6.742875,4.5 5.8125,4.5 Z" id="Shape"></path>
        </g>
    </g>
</svg>

<svg width="18" height="17" viewBox="0 0 18 17" xmlns="http://www.w3.org/2000/svg"><title>noun_613777_cc copy</title><path d="M3.056 13.5a2.815 2.815 0 0 1 2.756-2.25c1.36 0 2.496.967 2.757 2.25h8.681a.563.563 0 0 1 0 1.125H8.569a2.815 2.815 0 0 1-2.757 2.25 2.815 2.815 0 0 1-2.756-2.25H.75a.563.563 0 0 1 0-1.125h2.306zm2.756 2.25a1.69 1.69 0 0 1-1.687-1.688c0-.93.757-1.687 1.688-1.687.93 0 1.687.757 1.687 1.688a1.69 1.69 0 0 1-1.688 1.687zm3.62-7.875a2.815 2.815 0 0 1 2.755-2.25c1.36 0 2.496.967 2.757 2.25h2.306a.563.563 0 0 1 0 1.125h-2.306a2.815 2.815 0 0 1-2.757 2.25A2.815 2.815 0 0 1 9.431 9H.75a.563.563 0 0 1 0-1.125h8.681zm2.755 2.25A1.69 1.69 0 0 1 10.5 8.437c0-.93.757-1.687 1.688-1.687.93 0 1.687.757 1.687 1.688a1.69 1.69 0 0 1-1.688 1.687zM3.057 2.25A2.815 2.815 0 0 1 5.812 0c1.36 0 2.495.967 2.756 2.25h8.681a.563.563 0 0 1 0 1.125h-8.68a2.815 2.815 0 0 1-2.757 2.25 2.815 2.815 0 0 1-2.756-2.25H.75a.563.563 0 0 1 0-1.125h2.306zM5.812 4.5a1.69 1.69 0 0 1-1.688-1.688c0-.93.757-1.687 1.688-1.687.93 0 1.687.757 1.687 1.688A1.69 1.69 0 0 1 5.812 4.5z" fill="#FFF" fill-rule="evenodd"/></svg>
